X:2277
T:Bugle Horn. JC.075
M:2/4
L:1/8
Q:180
S:John Clare,Poet,Helpston. (1793-1864)
R:Air
O:England
A:Northamptonshire
N:
Z:P Headford
K:D
a|gffd|d2AA|ddee|(f/e/f/g/) ea|affd|d2AA|ee (e/d/e/f/)|
d2d:|!
|:f|d2Af|d2Af|dfdf|d2Aa|affd|d2Af|eeef|d2d:|]


